assets/Locked/Flat/locked_flat.svg

<svg width="32" height="32" viewBox="0 0 32 32" fill="none" xmlns="http://www.w3.org/2000/svg">
<path d="M16 2C12.6863 2 10 4.68629 10 8V11C10 14.3137 12.6863 17 16 17C19.3137 17 22 14.3137 22 11V8C22 4.68629 19.3137 2 16 2ZM16 4.5C17.933 4.5 19.5 6.067 19.5 8V11C19.5 12.933 17.933 14.5 16 14.5C14.067 14.5 12.5 12.933 12.5 11V8C12.5 6.067 14.067 4.5 16 4.5Z" fill="#D3D3D3"/>
<path d="M5 14C5 12.3431 6.34315 11 8 11H24C25.6569 11 27 12.3431 27 14V27C27 28.6569 25.6569 30 24 30H8C6.34315 30 5 28.6569 5 27V14Z" fill="#F9C23C"/>
<path d="M17.5 20.5002C18.1072 20.0441 18.5 19.3179 18.5 18.5C18.5 17.1193 17.3807 16 16 16C14.6193 16 13.5 17.1193 13.5 18.5C13.5 19.3179 13.8928 20.0441 14.5 20.5002V24C14.5 24.8284 15.1716 25.5 16 25.5C16.8284 25.5 17.5 24.8284 17.5 24V20.5002Z" fill="#433B6B"/>
</svg>

<svg xmlns="http://www.w3.org/2000/svg" width="32" height="32" fill="none"><path fill="#D3D3D3" d="M16 2a6 6 0 0 0-6 6v3a6 6 0 0 0 12 0V8a6 6 0 0 0-6-6Zm0 2.5A3.5 3.5 0 0 1 19.5 8v3a3.5 3.5 0 1 1-7 0V8A3.5 3.5 0 0 1 16 4.5Z"/><path fill="#F9C23C" d="M5 14a3 3 0 0 1 3-3h16a3 3 0 0 1 3 3v13a3 3 0 0 1-3 3H8a3 3 0 0 1-3-3V14Z"/><path fill="#433B6B" d="M17.5 20.5a2.5 2.5 0 1 0-3 0V24a1.5 1.5 0 0 0 3 0v-3.5Z"/></svg>
